svg/SJJB-OpenStreetMapIcons/education/nursery3.svg

<?xml version="1.0" encoding="UTF-8" standalone="no"?>
<!-- Created with Inkscape (http://www.inkscape.org/) -->

<svg
   xmlns:dc="http://purl.org/dc/elements/1.1/"
   xmlns:cc="http://creativecommons.org/ns#"
   xmlns:rdf="http://www.w3.org/1999/02/22-rdf-syntax-ns#"
   xmlns:svg="http://www.w3.org/2000/svg"
   xmlns="http://www.w3.org/2000/svg"
   xmlns:sodipodi="http://sodipodi.sourceforge.net/DTD/sodipodi-0.dtd"
   xmlns:inkscape="http://www.inkscape.org/namespaces/inkscape"
   version="1.0"
   width="580"
   height="580"
   id="svg2"
   sodipodi:version="0.32"
   inkscape:version="0.47 r22583"
   sodipodi:docname="education_nursery3.svg"
   inkscape:output_extension="org.inkscape.output.svg.inkscape">
  <defs
     id="defs22">
    <inkscape:perspective
       sodipodi:type="inkscape:persp3d"
       inkscape:vp_x="599.81824 : 535.34677 : 1"
       inkscape:vp_y="0 : -1000 : 0"
       inkscape:vp_z="79.922314 : 516.25488 : 1"
       inkscape:persp3d-origin="295.6761 : 676.56117 : 1"
       id="perspective24" />
    <marker
       viewBox="0 0 10 10"
       refY="5"
       refX="10"
       orient="auto"
       markerWidth="4"
       markerUnits="strokeWidth"
       markerHeight="3"
       id="ArrowStart">
      <path
         id="path3568"
         d="M 10 0 L 0 5 L 10 10 z" />
    </marker>
    <marker
       viewBox="0 0 10 10"
       refY="5"
       refX="0"
       orient="auto"
       markerWidth="4"
       markerUnits="strokeWidth"
       markerHeight="3"
       id="ArrowEnd">
      <path
         id="path3565"
         d="M 0 0 L 10 5 L 0 10 z" />
    </marker>
    <inkscape:perspective
       id="perspective2683"
       inkscape:persp3d-origin="306.082 : 204.39034 : 1"
       inkscape:vp_z="612.164 : 306.58551 : 1"
       inkscape:vp_y="0 : 1000 : 0"
       inkscape:vp_x="0 : 306.58551 : 1"
       sodipodi:type="inkscape:persp3d" />
    <marker
       viewBox="0 0 10 10"
       refY="5"
       refX="10"
       orient="auto"
       markerWidth="4"
       markerUnits="strokeWidth"
       markerHeight="3"
       id="marker2959">
      <path
         id="path2626"
         d="M 10 0 L 0 5 L 10 10 z" />
    </marker>
    <marker
       viewBox="0 0 10 10"
       refY="5"
       refX="0"
       orient="auto"
       markerWidth="4"
       markerUnits="strokeWidth"
       markerHeight="3"
       id="marker2956">
      <path
         id="path2623"
         d="M 0 0 L 10 5 L 0 10 z" />
    </marker>
    <inkscape:perspective
       id="perspective2953"
       inkscape:persp3d-origin="306.082 : 204.39034 : 1"
       inkscape:vp_z="612.164 : 306.58551 : 1"
       inkscape:vp_y="0 : 1000 : 0"
       inkscape:vp_x="0 : 306.58551 : 1"
       sodipodi:type="inkscape:persp3d" />
    <inkscape:perspective
       id="perspective3927"
       inkscape:persp3d-origin="0.5 : 0.33333333 : 1"
       inkscape:vp_z="1 : 0.5 : 1"
       inkscape:vp_y="0 : 1000 : 0"
       inkscape:vp_x="0 : 0.5 : 1"
       sodipodi:type="inkscape:persp3d" />
    <inkscape:perspective
       id="perspective4081"
       inkscape:persp3d-origin="0.5 : 0.33333333 : 1"
       inkscape:vp_z="1 : 0.5 : 1"
       inkscape:vp_y="0 : 1000 : 0"
       inkscape:vp_x="0 : 0.5 : 1"
       sodipodi:type="inkscape:persp3d" />
    <inkscape:perspective
       id="perspective4103"
       inkscape:persp3d-origin="0.5 : 0.33333333 : 1"
       inkscape:vp_z="1 : 0.5 : 1"
       inkscape:vp_y="0 : 1000 : 0"
       inkscape:vp_x="0 : 0.5 : 1"
       sodipodi:type="inkscape:persp3d" />
    <inkscape:perspective
       id="perspective4139"
       inkscape:persp3d-origin="0.5 : 0.33333333 : 1"
       inkscape:vp_z="1 : 0.5 : 1"
       inkscape:vp_y="0 : 1000 : 0"
       inkscape:vp_x="0 : 0.5 : 1"
       sodipodi:type="inkscape:persp3d" />
    <inkscape:perspective
       id="perspective2991"
       inkscape:persp3d-origin="0.5 : 0.33333333 : 1"
       inkscape:vp_z="1 : 0.5 : 1"
       inkscape:vp_y="0 : 1000 : 0"
       inkscape:vp_x="0 : 0.5 : 1"
       sodipodi:type="inkscape:persp3d" />
  </defs>
  <metadata
     id="metadata10">
    <rdf:RDF>
      <cc:Work
         rdf:about="">
        <dc:format>image/svg+xml</dc:format>
        <dc:type
           rdf:resource="http://purl.org/dc/dcmitype/StillImage" />
        <cc:license
           rdf:resource="http://web.resource.org/cc/PublicDomain" />
        <dc:language>en</dc:language>
        <dc:title></dc:title>
      </cc:Work>
    </rdf:RDF>
  </metadata>
  <sodipodi:namedview
     inkscape:window-height="973"
     inkscape:window-width="1280"
     inkscape:pageshadow="2"
     inkscape:pageopacity="0.0"
     guidetolerance="10.0"
     gridtolerance="10.0"
     objecttolerance="10.0"
     borderopacity="1.0"
     bordercolor="#666666"
     pagecolor="#ffffff"
     id="base"
     showgrid="false"
     inkscape:zoom="0.062500002"
     inkscape:cx="7476.8773"
     inkscape:cy="-1052.2038"
     inkscape:window-x="0"
     inkscape:window-y="0"
     inkscape:current-layer="svg2"
     inkscape:window-maximized="1" />
  <g
     id="g1327">
    <path
       d="M 66.275,1.768 C 24.94,1.768 1.704,23.139 1.704,66.804 L 1.704,516.927 C 1.704,557.771 22.598,579.156 63.896,579.156 L 515.92,579.156 C 557.227,579.156 578.149,558.84 578.149,516.927 L 578.149,66.804 C 578.149,24.203 557.227,1.768 514.627,1.768 C 514.624,1.768 66.133,1.625 66.275,1.768 z"
       style="fill:#111111;stroke:#eeeeee;stroke-width:3.40799999"
       id="path1329" />
  </g>
  <g
     id="g2319"
     transform="translate(879.29125,36.805119)">
    <path
       id="path2323"
       style="fill:#ffffff;stroke:none"
       d="" />
  </g>
  <g
     id="g2325"
     transform="translate(879.29125,36.805119)">
    <path
       id="path2329"
       style="fill:#ffffff;stroke:none"
       d="" />
  </g>
  <path
     style="fill:none;stroke:#ffffff;stroke-width:30.44716263;stroke-linecap:round;stroke-linejoin:round;stroke-miterlimit:4;stroke-opacity:1;stroke-dasharray:none"
     d="M 68.564095,150.51046 318.30511,232.32214 313.99924,528.35134 85.78763,423.9338 68.564095,150.51046 z"
     id="path3933"
     sodipodi:nodetypes="ccccc" />
  <path
     style="fill:none;stroke:#ffffff;stroke-width:30.44716263;stroke-linecap:round;stroke-linejoin:round;stroke-miterlimit:4;stroke-opacity:1;stroke-dasharray:none"
     d="M 514.22263,131.13401 318.30511,232.32214 315.0757,529.42783 494.84619,405.63379 514.22263,131.13401 z"
     id="path3935" />
  <path
     style="fill:none;stroke:#ffffff;stroke-width:30.44716263;stroke-linecap:round;stroke-linejoin:round;stroke-miterlimit:4;stroke-opacity:1;stroke-dasharray:none"
     d="M 273.09339,62.239925 70.986184,148.08842 318.30511,231.24568 512.06968,129.25014 273.09339,62.239925 z"
     id="path3937"
     sodipodi:nodetypes="ccccc" />
  <path
     style="font-size:medium;font-style:normal;font-variant:normal;font-weight:normal;font-stretch:normal;text-indent:0;text-align:start;text-decoration:none;line-height:normal;letter-spacing:normal;word-spacing:normal;text-transform:none;direction:ltr;block-progression:tb;writing-mode:lr-tb;text-anchor:start;opacity:0.9;color:#000000;fill:#ffffff;fill-opacity:1;fill-rule:nonzero;stroke:none;stroke-width:16.52018929;marker:none;visibility:visible;display:inline;overflow:visible;enable-background:accumulate;font-family:Bitstream Charter;-inkscape-font-specification:Bitstream Charter"
     d="m 68.837859,135.30745 c -4.195247,-0.0822 -8.386918,1.63409 -11.288544,4.66517 -2.901644,3.03108 -4.469507,7.33125 -4.204406,11.51892 l 17.220788,273.40161 c 0.341089,5.47059 3.883904,10.62375 8.86957,12.9012 L 307.68271,542.21337 c 4.58364,2.09005 10.20101,1.71741 14.45624,-0.9791 4.25524,-2.6965 7.01696,-7.6336 7.08414,-12.67082 l 4.3196,-296.03629 c 0.0923,-6.43689 -4.36479,-12.68188 -10.48222,-14.68663 L 73.330238,136.05618 c -1.44873,-0.47251 -2.968712,-0.72584 -4.492379,-0.74873 z m 68.883151,102.92157 c 4.73153,-0.10724 10.61429,0.74335 17.68155,2.53417 9.4229,2.38795 19.70104,6.03411 30.75552,11.00057 17.74515,7.97282 31.99031,15.52983 42.85039,22.63468 10.8598,7.10515 20.04867,15.8446 27.53022,26.26314 5.25385,7.24653 9.54633,16.05482 12.8436,26.49352 3.29692,10.43883 5.11851,19.86225 5.47149,28.16377 l 3.28289,77.81031 c 0.35257,8.30151 1.12482,15.09753 2.24619,20.21571 1.12093,5.11807 3.38258,11.97679 6.79616,20.67647 l -55.57879,-24.93847 c -2.42329,-5.54036 -4.00057,-9.64058 -4.78036,-12.32525 -0.78006,-2.68497 -1.63913,-6.75576 -2.53416,-12.15246 -7.39539,5.03762 -14.84151,7.62199 -22.34671,7.83287 -10.26572,0.16495 -22.30299,-2.81228 -36.16941,-9.04236 -18.4241,-8.27766 -32.65475,-19.43063 -42.62001,-33.46246 -9.96535,-14.03191 -15.2318,-28.22606 -15.83852,-42.50483 -0.56913,-13.39322 2.40926,-22.85367 8.92716,-28.39414 6.51787,-5.54034 18.92139,-6.24609 37.26372,-2.131 21.9894,4.88518 36.22826,7.78205 42.7352,8.69679 6.50675,0.91489 13.39025,1.39192 20.61887,1.38227 -0.35287,-8.3015 -2.09409,-14.79574 -5.24111,-19.46698 -3.14727,-4.67112 -8.50543,-8.69657 -16.0689,-12.09487 -9.69692,-4.35658 -16.9001,-5.85596 -21.59798,-4.49238 -3.66427,1.06818 -6.52135,4.86954 -8.524,11.46133 l -56.84588,-32.25298 c 1.65353,-10.33155 4.3142,-17.79453 8.06325,-22.4619 3.74905,-4.66704 9.34109,-7.68084 16.70243,-9.04235 1.3211,-0.24784 2.80002,-0.36741 4.37719,-0.40317 z m 41.00736,118.93287 c -3.72921,0.0927 -6.36578,0.67569 -7.89046,1.72784 -3.14179,2.17144 -4.57481,5.60299 -4.37719,10.25184 0.22568,5.31303 2.0219,10.36956 5.4139,15.20498 3.39181,4.83551 8.21079,8.68707 14.51384,11.51892 6.5938,2.96254 12.68233,3.86853 18.19989,2.76454 5.51735,-1.10423 9.30888,-3.75782 11.46133,-7.94805 2.1522,-4.19033 3.06431,-10.47874 2.70695,-18.89104 l -0.46076,-10.77019 c -8.00436,-0.33897 -16.33781,-1.28822 -25.05365,-2.70695 -5.9345,-0.87477 -10.78463,-1.24461 -14.51385,-1.15189 z"
     id="path4040" />
  <path
     style="font-size:medium;font-style:normal;font-variant:normal;font-weight:normal;font-stretch:normal;text-indent:0;text-align:start;text-decoration:none;line-height:normal;letter-spacing:normal;word-spacing:normal;text-transform:none;direction:ltr;block-progression:tb;writing-mode:lr-tb;text-anchor:start;opacity:0.6;color:#000000;fill:#ffffff;fill-opacity:1;fill-rule:nonzero;stroke:none;stroke-width:30.44716263;marker:none;visibility:visible;display:inline;overflow:visible;enable-background:accumulate;font-family:Bitstream Charter;-inkscape-font-specification:Bitstream Charter"
     d="M 513.3125 115.9375 C 511.20609 116.0615 509.12687 116.62954 507.25 117.59375 L 311.3125 218.78125 C 306.4314 221.31096 303.14522 226.65881 303.09375 232.15625 L 299.84375 529.25 C 299.77435 534.8007 303.00695 540.26503 307.90625 542.875 C 312.80556 545.48497 319.15082 545.12297 323.71875 541.96875 L 503.46875 418.1875 C 507.22329 415.60673 509.70863 411.26329 510.03125 406.71875 L 529.40625 132.21875 C 529.71345 127.91179 528.09798 123.50835 525.0625 120.4375 C 522.02702 117.36665 517.62273 115.68021 513.3125 115.9375 z M 461.5625 269.53125 C 462.25094 269.52983 462.915 269.54579 463.5625 269.59375 C 473.92225 270.36154 480.77761 276.20573 484.03125 287.21875 L 437.34375 319.40625 C 436.34014 315.08976 434.0598 312.71018 430.46875 312.28125 C 426.87744 311.85265 421.86377 313.51522 415.4375 317.1875 C 407.32415 321.82408 400.52348 328.27279 395.03125 336.625 C 389.53887 344.97748 386.30011 354.72607 385.34375 365.84375 C 384.49134 375.75152 386.33691 381.85958 390.875 384.15625 C 395.41293 386.45311 401.56952 385.40699 409.28125 381 C 415.7075 377.32766 421.23019 372.6653 425.875 367.0625 C 430.51961 361.45985 434.21548 354.82445 436.9375 347.15625 L 483.09375 325.5 C 479.73578 336.12048 474.84597 346.48689 468.40625 356.53125 C 461.96625 366.57577 454.06108 376.05257 444.625 384.96875 C 435.18869 393.88494 423.43257 402.34162 409.375 410.375 C 395.79924 418.13306 384.61333 423.37433 375.78125 426.15625 C 366.94909 428.93826 359.48545 429.55123 353.4375 427.9375 C 347.38945 426.32392 342.82704 422.97961 339.75 417.90625 C 336.67293 412.83298 335.63473 404.34292 336.65625 392.46875 C 337.72328 380.06531 340.85484 368.47086 346.0625 357.65625 C 349.87648 349.72378 354.85217 341.7182 360.96875 333.65625 C 367.08529 325.59445 373.27355 318.6626 379.5 312.875 C 389.37796 303.70646 401.77739 294.85106 416.71875 286.3125 C 436.29897 275.12323 451.23586 269.55251 461.5625 269.53125 z "
     id="path4042" />
  <path
     style="font-size:medium;font-style:normal;font-variant:normal;font-weight:normal;font-stretch:normal;text-indent:0;text-align:start;text-decoration:none;line-height:normal;letter-spacing:normal;word-spacing:normal;text-transform:none;direction:ltr;block-progression:tb;writing-mode:lr-tb;text-anchor:start;opacity:0.75;color:#000000;fill:#ffffff;fill-opacity:1;fill-rule:nonzero;stroke:none;stroke-width:30.44716263;marker:none;visibility:visible;display:inline;overflow:visible;enable-background:accumulate;font-family:Bitstream Charter;-inkscape-font-specification:Bitstream Charter"
     d="M 272.6875 47.03125 C 270.79129 47.07792 268.90452 47.482987 267.15625 48.21875 L 65.03125 134.0625 C 59.373254 136.44928 55.514248 142.55121 55.75 148.6875 C 55.985752 154.82379 60.300556 160.58562 66.125 162.53125 L 313.46875 245.6875 C 317.35931 246.99091 321.77677 246.63243 325.40625 244.71875 L 519.15625 142.71875 C 524.50425 139.90126 527.82203 133.66764 527.1875 127.65625 C 526.55296 121.64487 522.00589 116.23257 516.1875 114.59375 L 277.21875 47.59375 C 275.74798 47.180323 274.21472 46.989986 272.6875 47.03125 z M 315.15625 111.25 C 316.30703 111.25571 317.47734 111.28437 318.65625 111.3125 C 337.51877 111.76271 357.44413 115.62593 378.4375 122.9375 C 392.43299 127.81202 403.01991 132.89652 410.1875 138.1875 C 417.35489 143.47859 420.49283 148.43682 419.59375 153.0625 C 418.69437 157.68824 414.49029 161.72165 406.96875 165.125 C 400.53017 168.03834 392.77409 170.05297 383.71875 171.1875 C 376.7916 172.00325 366.96664 172.09121 354.25 171.46875 L 373.21875 178.0625 L 338.8125 193.625 L 161.9375 132.03125 L 199.03125 115.25 L 260.34375 136.59375 C 258.86662 133.14006 259.16056 129.91284 261.25 126.90625 C 263.33953 123.8997 267.21881 121.12195 272.875 118.5625 C 283.81904 113.61065 297.8945 111.16428 315.15625 111.25 z M 313.21875 134.03125 C 306.8919 133.98402 301.88295 134.79371 298.25 136.4375 C 293.25566 138.69738 291.64996 141.37903 293.4375 144.53125 C 295.2252 147.68357 301.16452 151.02956 311.21875 154.53125 C 322.23824 158.36919 331.76691 160.42938 339.8125 160.75 C 347.85812 161.07074 354.24633 160.18222 359 158.03125 C 363.39262 156.0437 364.63768 153.5114 362.75 150.46875 C 360.86228 147.42622 354.18956 143.9123 342.6875 139.90625 C 332.55278 136.37654 323.66401 134.45737 316 134.125 C 315.042 134.08347 314.12259 134.038 313.21875 134.03125 z "
     id="path4044" />
</svg>

<svg xmlns="http://www.w3.org/2000/svg" viewBox="0 0 580 580"><path d="m66.28 1.768c-41.34 0-64.57 21.371-64.57 65.04v450.12c0 40.844 20.894 62.23 62.19 62.23h452.02c41.31 0 62.23-20.316 62.23-62.23v-450.12c0-42.601-20.922-65.04-63.52-65.04-.003 0-448.49-.143-448.35 0z" fill="#111" stroke="#eee" stroke-width="3.408"/><g fill="none" stroke="#fff" stroke-linejoin="round" stroke-linecap="round" stroke-width="30.447"><path d="m68.56 150.51l249.74 81.81-4.306 296.03-228.21-104.42-17.224-273.42z"/><path d="m514.22 131.13l-195.92 101.19-3.229 297.11 179.77-123.79 19.376-274.5z"/><path d="m273.09 62.24l-202.11 85.85 247.32 83.16 193.76-102-238.98-67.01z"/></g><g fill="#fff" color="#000"><path d="m68.838 135.31c-4.195-.082-8.387 1.634-11.289 4.665-2.902 3.03-4.47 7.331-4.204 11.519l17.221 273.4c.341 5.471 3.884 10.624 8.87 12.901l228.25 104.42c4.584 2.09 10.201 1.717 14.456-.979 4.255-2.697 7.02-7.634 7.084-12.671l4.32-296.04c.092-6.437-4.365-12.682-10.482-14.687l-249.73-81.78c-1.449-.473-2.969-.726-4.492-.749m68.883 102.92c4.732-.107 10.614.743 17.682 2.534 9.423 2.388 19.701 6.03 30.756 11 17.745 7.973 31.99 15.53 42.85 22.635 10.86 7.105 20.05 15.845 27.53 26.26 5.254 7.247 9.546 16.05 12.844 26.494 3.297 10.439 5.119 19.862 5.471 28.16l3.283 77.81c.353 8.302 1.125 15.1 2.246 20.22 1.121 5.118 3.383 11.977 6.796 20.676l-55.58-24.938c-2.423-5.54-4-9.641-4.78-12.325-.78-2.685-1.639-6.756-2.534-12.152-7.395 5.04-14.842 7.622-22.347 7.833-10.266.165-22.303-2.812-36.17-9.04-18.424-8.278-32.655-19.431-42.62-33.462-9.965-14.03-15.232-28.23-15.839-42.505-.569-13.393 2.409-22.854 8.927-28.394 6.518-5.54 18.921-6.246 37.26-2.131 21.989 4.885 36.23 7.782 42.735 8.697 6.507.915 13.39 1.392 20.619 1.382-.353-8.301-2.094-14.796-5.241-19.467-3.147-4.671-8.505-8.697-16.07-12.09-9.697-4.357-16.9-5.856-21.598-4.492-3.664 1.068-6.521 4.87-8.524 11.461l-56.846-32.25c1.654-10.332 4.314-17.795 8.06-22.462 3.749-4.667 9.341-7.681 16.702-9.04 1.321-.248 2.8-.367 4.377-.403m41.01 118.93c-3.729.093-6.366.676-7.89 1.728-3.142 2.171-4.575 5.603-4.377 10.252.226 5.313 2.02 10.37 5.414 15.205 3.392 4.836 8.211 8.687 14.514 11.519 6.594 2.963 12.682 3.869 18.2 2.765 5.517-1.104 9.309-3.758 11.461-7.948 2.152-4.19 3.064-10.479 2.707-18.891l-.461-10.77c-8-.339-16.338-1.288-25.05-2.707-5.934-.875-10.785-1.245-14.514-1.152" opacity=".9"/><path d="m513.31 115.94c-2.106.124-4.186.692-6.06 1.656l-195.94 101.19c-4.881 2.53-8.167 7.878-8.219 13.375l-3.25 297.09c-.069 5.551 3.163 11.02 8.06 13.625 4.899 2.61 11.245 2.248 15.813-.906l179.75-123.78c3.755-2.581 6.24-6.924 6.563-11.469l19.375-274.5c.307-4.307-1.308-8.71-4.344-11.781-3.035-3.071-7.44-4.757-11.75-4.5m-51.75 153.59c.688-.0001 1.353.015 2 .063 10.36.768 17.215 6.612 20.469 17.625l-46.688 32.19c-1-4.316-3.284-6.696-6.875-7.125-3.591-.429-8.605 1.234-15.03 4.906-8.113 4.637-14.914 11.09-20.406 19.438-5.492 8.352-8.731 18.1-9.688 29.22-.852 9.908.993 16.02 5.531 18.313 4.538 2.297 10.695 1.251 18.406-3.156 6.426-3.672 11.949-8.335 16.594-13.938 4.645-5.603 8.34-12.238 11.06-19.906l46.16-21.656c-3.358 10.62-8.248 20.987-14.688 31.03-6.44 10.04-14.345 19.521-23.781 28.438-9.436 8.916-21.19 17.373-35.25 25.406-13.576 7.758-24.762 12.999-33.594 15.781-8.832 2.782-16.296 3.395-22.344 1.781-6.05-1.614-10.61-4.958-13.688-10.03-3.077-5.073-4.115-13.563-3.094-25.438 1.067-12.403 4.199-23.998 9.406-34.813 3.814-7.932 8.79-15.938 14.906-24 6.117-8.06 12.305-14.994 18.531-20.781 9.878-9.169 22.277-18.02 37.22-26.563 19.58-11.189 34.517-16.76 44.844-16.781" opacity=".6"/><path d="m272.69 47.03c-1.896.047-3.783.452-5.531 1.188l-202.12 85.84c-5.658 2.387-9.517 8.489-9.281 14.625.236 6.136 4.551 11.898 10.375 13.844l247.34 83.16c3.891 1.303 8.308.945 11.938-.969l193.75-102c5.348-2.817 8.666-9.05 8.03-15.06-.635-6.01-5.182-11.424-11-13.06l-238.97-67c-1.471-.413-3-.604-4.531-.563m42.469 64.22c1.151.006 2.321.034 3.5.063 18.863.45 38.788 4.313 59.781 11.625 13.995 4.875 24.582 9.959 31.75 15.25 7.167 5.291 10.305 10.249 9.406 14.875-.899 4.626-5.103 8.659-12.625 12.06-6.439 2.913-14.195 4.928-23.25 6.06-6.927.816-16.752.904-29.469.281l18.969 6.594-34.406 15.563-176.87-61.59 37.09-16.781 61.31 21.344c-1.477-3.454-1.183-6.681.906-9.688 2.09-3.01 5.969-5.784 11.625-8.344 10.944-4.952 25.02-7.398 42.28-7.313m-1.938 22.781c-6.327-.047-11.336.762-14.969 2.406-4.994 2.26-6.6 4.942-4.813 8.094 1.788 3.152 7.727 6.498 17.781 10 11.02 3.838 20.548 5.898 28.594 6.219 8.05.321 14.434-.568 19.19-2.719 4.393-1.988 5.638-4.52 3.75-7.563-1.888-3.043-8.56-6.556-20.06-10.563-10.135-3.53-19.02-5.449-26.688-5.781-.958-.042-1.877-.087-2.781-.094" opacity=".75"/></g></svg>
